X:1
T: Frank's Reel
C: John McCusker (1991)
%date: 1991
S: Portland Collection v.2 p.67
Z: 2019 John Chambers <jc:trillian.mit.edu>
M: 4/4
L: 1/8
R: reel
K: A
[| "A"AcBA "D"F3 A  | "A"EFAB cABc | "D"d3f "A"eAce | "Bm"faec "E7"(3Bcd cB |
 | "A"AcBA "D"F2 AF | "A"EFAB cABc | "D"d3f "A"ecAc |  "E"BAGB "A"A2 (3EFG ||
|| "A"AcBA "D"F3 A | "A"EFAB cABc | "D"d2df     "A"eAce | "Bm"faec "E7"(3Bcd cB |
 | "A"AcBA "D"EFAF | "A"EFAB cABc | "D"df (3fff "A"ecAc | "E7"BAGB "A"Ae"(E7)"fg |]
[| "A"aAAg AAfA | effe cABc | "D"d3 f     "A"ecAc | "Bm"Bcde "E7"fe (3efg |
 | "A"aAAg AAfA | effe cABc | "D"df (3fff "A"ecAc | "E7"BAGB "A"Ae"(E7)"fg ||
|| "A"aAAg AAfA | ef2e cABc | "D"d3 f "A"eAce | "Bm"faec "E7"(3Bcd cB |
 | "A"AcBA "D"F3 A | "A"EFAB cABc | "D"d3 f "A"ecAc | "E7"BAGB "A"A4 |]
